!!!COM: Kudirka, Vincas
!!!CDT: 1826-1869
!!!OTL: National Anthem, Lithuania
!!!ENC: Davis, Matthew J.
!!Vocal Line Only
**kern
*clefG2
*k[f#]
*G:
*M4/4
=1-
4.g
8d
4g
4a
=2
4b
4a
4g
4a
=3
4.b
8a
4b
4cc
=4
4dd
4ee
4dd
4r
=5
4.ee
8dd
4cc
4b
=6
4a
4g
4f
4cc
=7
!First Ending
4.b
8a
4g
4a
=8
2b
2a
==:|!9
!Second Ending
4.b
8a
4g
4f#
=10
2g
4g
4r
==!|:11
4.a
8g
4f#
4g
=12
4.a
8b
4a
4r
=13
4.cc
8b
4a
4b
=14
4.cc
8dd
4cc
4r
=15
4b
4ee
4dd
4r
=16
4g
4cc
4b
4r
=17
!First Ending
4.f#
8cc
4b
4g
=18
4f#
4e
4f#
4g
==:|!19
!Second Ending
4.f#
8cc
4b
4g
=20
4b
4a
2g
==|!
*-
